!!!COM: Bach, Johann Sebastian
!!!CDT: 1685/3//-1750/7/28/
!!!OTL@@DE: Der Tag, der ist so freudenreich
!!!OTL@EN: This day is so joyful
!!!AGN: 4-Part Chorale
!!!SCT: BH 158
!!!SCT: BWV 294
**harm	**root	**kern	**kern	**kern	**kern
!	!	!bass	!tenor	!alto	!soprno
*	*Iorgan	*Iorgan	*Iorgan	*Iorgan	*Iorgan
*k[b-]	*k[b-]	*k[b-]	*k[b-]	*k[b-]	*k[b-]
*F:	*F:	*F:	*F:	*F:	*F:
*M4/4	*M4/4	*M4/4	*M4/4	*M4/4	*M4/4
*met(c)	*met(c)	*met(c)	*met(c)	*met(c)	*met(c)
*MM60	*MM60	*MM60	*MM60	*MM60	*MM60
*>[A,A,B]	*>[A,A,B]	*>[A,A,B]	*>[A,A,B]	*>[A,A,B]	*>[A,A,B]
*>A	*>A	*>A	*>A	*>A	*>A
I	4GG	8F	4A	4c	4f
.	.	8E	.	.	.
=1	=1	=1	=1	=1	=1
vi	4EE	8D	4A	4d	4f
.	.	8C	.	.	.
IV	4CC	8BB-	4B-	4.d	4f
.	.	8AA	.	.	.
ii	4AA	4GG	4B-	.	4g
.	.	.	.	8e	.
V7/IV	4GG	4FF	8c	4f	4a
.	.	.	8e-	.	.
=2	=2	=2	=2	=2	=2
IV	4CC	4BB-	4d	4.f	8b-
.	.	.	.	.	8a
V	4DD	4C	8G	.	4g
.	.	.	16c	8e	.
.	.	.	16B-	.	.
I;	2GG;	2FF;	2A;	2c;	2f;
=3	=3	=3	=3	=3	=3
V	4DD	4C	4c	4e	4g
ii	8AA	8GG	8B-	8d	4g
vii7/IV	8BB	8AA	[8A	8c	.
ii	4AA	4BB-	8A]	[4d	4d
.	.	.	[8G	.	.
V	4DD	4C	8G]	8d]	4e
.	.	.	16A	16c	.
.	.	.	16G	16B-	.
=4	=4	=4	=4	=4	=4
vi	4EE	4D	4.F	8A	4f
.	.	.	.	8F	.
V	4DD	4C	.	4c	4g
.	.	.	8E	.	.
I;	4GG;	4FF;	4A;	4c;	4f;
=:|!	=:|!	=:|!	=:|!	=:|!	=:|!
*>B	*>B	*>B	*>B	*>B	*>B
I	4GG	4F	4A	4c	4f
=5	=5	=5	=5	=5	=5
V7b	4DD	4E	8G	4c	4cc
.	.	.	8B-	.	.
I	8GG	8F	8A	8f	4cc
Vb	8DD	8E	8G	8g	.
vi	4EE	4D	4F	8a	4dd
.	.	.	.	8b-	.
Vb	4DD	4E	4c	8a	8cc
.	.	.	.	8g	8b-
!!linebreak: 3
=6	=6	=6	=6	=6	=6
I	4GG	8F	4c	4f	4a
.	.	8E	.	.	.
viib/V	4CC#	4D	4d	4f	4b
V;	4DD;	4C;	4e;	4g;	4cc;
Vb	4DD	4E	8c	4g	4cc
.	.	.	8B-	.	.
=7	=7	=7	=7	=7	=7
I	4GG	8F	8A	4f	4cc
.	.	8G	8B-	.	.
Ib	4GG	8A	8c	4f	4cc
.	.	8F	8A	.	.
IV	4CC	4B-	8B-	4f	4dd
.	.	.	8A	.	.
Vb	4DD	4E	8G	[4g	8cc
.	.	.	8c	.	8b-
=8	=8	=8	=8	=8	=8
I	4GG	4F	4c	8g]	4a
.	.	.	.	4f	.
V	4DD	4C	8.c	.	4g
.	.	.	.	8e	.
.	.	.	16B-	.	.
I;	2GG;	2FF;	2A;	2c;	2f;
=9	=9	=9	=9	=9	=9
IV	4CC	8BB-	4F	4B-	4d
.	.	8AA	.	.	.
viib	4FF#	4GG	4G	4B-	4e
Ib	4GG	4AA	8C	8c	4f
.	.	.	4F	4A	.
vii7/V	8CC#	4BB	.	.	4d
Vb/V	8AA	.	16E	8G	.
.	.	.	16D	.	.
=10	=10	=10	=10	=10	=10
V	4DD	4C	4E	8G	4c
.	.	.	.	8A	.
V7/V	4AA	4GG	8D	4G	4B
.	.	.	16E	.	.
.	.	.	16F	.	.
V;	2DD;	2CC;	2E;	2G;	2c;
!!linebreak: 3
=11	=11	=11	=11	=11	=11
vi	4EE	8D	4A	4d	4f
.	.	8C	.	.	.
IV	4CC	8BB-	4B-	4d	4f
.	.	8AA	.	.	.
ii	8AA	4GG	4B-	8d	4g
viib	8FF#	.	.	8e	.
V7/IV	4GG	4FF	8c	4f	4a
.	.	.	8e-	.	.
=12	=12	=12	=12	=12	=12
IV	4CC	4BB-	4d	4.f	8b-
.	.	.	.	.	8a
V	4DD	4C	8G	.	4g
.	.	.	16c	8e	.
.	.	.	16B-	.	.
I;	2GG;	2FF;	2A;	2c;	2f;
=13	=13	=13	=13	=13	=13
V	4DD	8CC	8E	4c	4g
.	.	8DD	8F	.	.
Vb	4DD	8EE	4G	4c	4g
.	.	8FF	.	.	.
V/V	4AA	8GG	4G	4B	4d
.	.	8FF	.	.	.
Vb	4DD	4EE	4G	4c	4e
=14	=14	=14	=14	=14	=14
vi7b	4EE	4DD	4A	4c	8f
.	.	.	.	.	8e
V/V	4AA	4GG	8D	4B	4d
.	.	.	16G	.	.
.	.	.	16F	.	.
V;	4DD;	4C;	4E;	4G;	4c;
V7b/IV	4GG	4AA	4F	4c	4e-
=15	=15	=15	=15	=15	=15
IV	4CC	4.BB-	4F	4B-	4d
IV	4CC	.	4D	4F	4B-
.	.	8AA	.	.	.
ii	4AA	4GG	4G	4B-	4d
V	4DD	8C	4G	4c	4ey
.	.	8BB-	.	.	.
=16	=16	=16	=16	=16	=16
Ib	4GG	8AA	4F	4.c	4f
.	.	8FF	.	.	.
V	4DD	4C	4E	.	4g
.	.	.	.	8B-	.
I;	4GG;	4FF;	4F;	4A;	4f;
==	==	==	==	==	==
*-	*-	*-	*-	*-	*-
!!!YOR: Ludwig Erk, Peters Editions of 1850, 1865; revised in light of
!!!YOR: Friedrich Smend, Peters Edition of 1932 & Albert Riemenschneider, 1941.
!!!RDT: 1987 September
!!!YER: 1995 March 1
!!chor2scor: -l 3 -s 0.6 -o %b.pmx
!!!ONB1: Text by Georg Niege; 16th Century secular melody, first appears 
!!!ONB2: in sacred use in Neu Catechismus-Gesangbüchlein, Hamburg, 1598. 
!!!YEC: Copyright 1994, David Huron
!!!YEN: United States of America
!!!SMA: 371 Bach Chorales, edited by Ludwig Erk, C.F. Peters
!!!PDT: 1850, 1865
